X: 041
Q: "Slow"
M: 6/8
L: 1/8
K: G
V: 1
dBG ~EFG | DB,G, G,2B/c/ |\
dBG ~c>de | e/d/c/B/A/G/ F/A/D/A/B/c/ |\
dBg eca | gbd' He'2e/f/ |
g/b/B/^d/e/B/ c/e/A/B/c/A/ | B/d/c/A/D/F/ G2 :|\
dBG e>cA | GFE ~c3 | {c}BAG FGA |
V: 2 clef=bass middle=d
z | g3 c3 | G6 | g2=f ed^c | d3 d>cB/A/ | G3 c2c' | b2g Hc'2z |
gzz B/d/c/B/A/G/ | c2^c d2f | g2b Hc'3 | bz c' d'z d | f/a/g/c/d/D/ G2 |]


